Obsidian-SemiLight/actions/22s/view-time-schedule-edit.svg

<svg viewBox="0 0 22 22" xmlns="http://www.w3.org/2000/svg"><path d="m3 3v16h9v-1h-8v-11h14v6h1v-10h-2v3h-2v-3h-8v3h-2v-3zm2 5v3h1v-1h4v1h1v-3h-1v1h-4v-1zm2 4v3h1v-1h4v1h1v-3h-1v1h-4v-1zm10 1-1 1-1 1-2 2v1 1h2l.59375-.59375.40625-.40625 1-1 1-1 1-1zm-.310547 1.689453.591797.591797-.28125.28125-1.40625 1.40625v.015625l-1.28125 1.296875-.59375-.59375z" fill="#4d4d4d"/></svg>

<svg xmlns="http://www.w3.org/2000/svg" viewBox="0 0 22 22">
  <defs id="defs3051">
    <style type="text/css" id="current-color-scheme">
      .ColorScheme-Text {
        color:#4d4d4d;
      }
      .ColorScheme-Highlight {
        color:#3daee9;
      }
      </style>
  </defs>
 <path 
     style="fill:currentColor;fill-opacity:1;stroke:none" 
     d="M 3 3 L 3 19 L 12 19 L 12 18 L 4 18 L 4 7 L 18 7 L 18 13 L 19 13 L 19 3 L 17 3 L 17 6 L 15 6 L 15 3 L 7 3 L 7 6 L 5 6 L 5 3 L 3 3 z M 5 8 L 5 11 L 6 11 L 6 10 L 10 10 L 10 11 L 11 11 L 11 8 L 10 8 L 10 9 L 6 9 L 6 8 L 5 8 z M 7 12 L 7 15 L 8 15 L 8 14 L 12 14 L 12 15 L 13 15 L 13 12 L 12 12 L 12 13 L 8 13 L 8 12 L 7 12 z M 17 13 L 16 14 L 15 15 L 13 17 L 13 18 L 13 19 L 15 19 L 15.59375 18.40625 L 16 18 L 17 17 L 18 16 L 19 15 L 17 13 z M 16.689453 14.689453 L 17.28125 15.28125 L 17 15.5625 L 15.59375 16.96875 L 15.59375 16.984375 L 14.3125 18.28125 L 13.71875 17.6875 L 16.689453 14.689453 z "
     class="ColorScheme-Text"
     />
</svg>
